assets/img/shape/teamDetailsShape1_3.svg

<svg width="213" height="49" viewBox="0 0 213 49" fill="none" xmlns="http://www.w3.org/2000/svg">
<path d="M161.032 217.574C157.337 197.629 165.958 187.362 166.505 174.427C167.098 161.492 163.449 141.728 160.712 127.753C157.976 113.778 156.197 105.863 157.246 98.0388C159.162 83.747 169.287 49.8267 168.831 41.5954C168.375 33.364 162.628 34.359 161.032 35.5802C157.611 38.2033 156.197 44.2638 155.102 47.5653C152.001 56.8821 147.303 73.8423 143.79 84.4255C140.734 93.6066 140.187 96.5915 135.808 96.4106C131.43 96.2297 131.43 88.7673 131.43 88.7673C131.43 88.7673 121.623 22.012 120.027 15.635C118.476 9.25797 116.15 4.1473 109.764 5.50411C103.379 6.8157 103.972 19.1175 103.972 19.1175C103.972 19.1175 109.855 77.1439 109.399 84.7873C108.943 92.4307 103.789 89.0386 102.877 87.2295C101.919 85.4204 98.635 75.8323 98.635 75.8323C98.635 75.8323 89.9232 45.6206 85.2252 32.6856C80.5272 19.7507 77.1064 10.1173 73.047 3.69504C68.9419 -2.77244 62.6475 0.710041 61.0967 3.83071C59.5003 6.95139 63.651 22.2834 63.651 22.2834C63.651 22.2834 76.0573 71.8523 77.9274 79.8123C79.7518 87.7723 80.9833 90.2597 80.6184 93.6518C80.2535 96.9986 74.8714 97.9936 72.4996 93.8779C70.1278 89.717 65.6578 82.5711 65.6578 82.5711C65.6578 82.5711 42.1679 44.2185 35.8735 36.8013C29.6247 29.384 26.2039 31.7811 21.734 35.4897C17.264 39.1983 27.1161 55.2992 27.1161 55.2992C27.1161 55.2992 40.8452 79.1791 48.5992 92.3402C56.3531 105.501 60.9598 116.989 62.8755 124.859C64.7912 132.683 63.9703 139.15 58.2232 141.276C54.255 142.768 49.1465 140.643 46.8203 139.422C41.803 136.798 37.0594 132.954 28.6213 128.251C20.1831 123.547 7.63995 125.537 3.44368 127.753C-0.75258 130.014 -0.0227504 136.482 4.62963 138.608C20.0919 145.753 22.1444 148.603 26.888 153.306C31.9509 158.327 40.2066 165.111 46.5467 174.02C52.9323 182.93 62.6931 190.438 74.8714 198.624C87.0953 206.81 91.0635 223.273 91.0635 223.273L94.4844 239.826C94.4844 239.826 103.926 287.179 112.227 329.828C115.101 344.572 140.096 497.078 144.52 529.325C150.267 531.677 156.106 534.028 162.035 536.425C170.747 528.194 179.094 520.098 187.167 512.093C195.97 503.41 204.363 494.862 212.436 486.404C200.622 430.956 163.403 230.193 161.032 217.574Z" fill="#043F2E"/>
</svg>

<svg version="1.2" xmlns="http://www.w3.org/2000/svg" viewBox="0 0 213 49" width="213" height="49"><style>.a{fill:#c32583}</style><path class="a" d="m161 217.6c-3.7-20 5-30.2 5.5-43.2 0.6-12.9-3.1-32.7-5.8-46.6-2.7-14-4.5-21.9-3.5-29.8 2-14.3 12.1-48.2 11.6-56.4-0.4-8.2-6.2-7.2-7.8-6-3.4 2.6-4.8 8.7-5.9 12-3.1 9.3-7.8 26.2-11.3 36.8-3.1 9.2-3.6 12.2-8 12-4.4-0.2-4.4-7.6-4.4-7.6 0 0-9.8-66.8-11.4-73.2-1.5-6.3-3.8-11.5-10.2-10.1-6.4 1.3-5.8 13.6-5.8 13.6 0 0 5.9 58 5.4 65.7-0.5 7.6-5.6 4.2-6.5 2.4-1-1.8-4.3-11.4-4.3-11.4 0 0-8.7-30.2-13.4-43.1-4.7-12.9-8.1-22.6-12.2-29-4.1-6.5-10.4-3-11.9 0.1-1.6 3.2 2.6 18.5 2.6 18.5 0 0 12.4 49.6 14.2 57.5 1.9 8 3.1 10.5 2.7 13.9-0.3 3.3-5.7 4.3-8.1 0.2-2.4-4.2-6.8-11.3-6.8-11.3 0 0-23.5-38.4-29.8-45.8-6.3-7.4-9.7-5-14.2-1.3-4.4 3.7 5.4 19.8 5.4 19.8 0 0 13.7 23.9 21.5 37 7.8 13.2 12.4 24.7 14.3 32.6 1.9 7.8 1.1 14.3-4.7 16.4-3.9 1.5-9.1-0.7-11.4-1.9-5-2.6-9.7-6.4-18.2-11.1-8.4-4.8-21-2.8-25.2-0.5-4.2 2.2-3.4 8.7 1.2 10.8 15.5 7.2 17.5 10 22.3 14.7 5.1 5 13.3 11.8 19.6 20.7 6.4 8.9 16.2 16.4 28.4 24.6 12.2 8.2 16.2 24.7 16.2 24.7l3.4 16.5c0 0 9.4 47.4 17.7 90 2.9 14.8 27.9 167.3 32.3 199.5q8.6 3.5 17.5 7.1c8.7-8.2 17.1-16.3 25.2-24.3 8.8-8.7 17.2-17.2 25.2-25.7-11.8-55.4-49-256.2-51.4-268.8z"/></svg>
